!!!OTL: WILLKOMMEN SCHOENER JUENGLING
!!!ARE: Europa, Mitteleuropa, Deutschland
!!!SCT: F0299
!!!YEM: Copyright 1995, estate of Helmut Schaffrath.
**kern
*ICvox
*Ivox
*M6/8
*k[b-e-]
*B-:
{8dd
=1
4dd
8b-
4ee-
8dd
=2
4dd
8cc
8b-
8r}
{8ff
=3
4ff
8b-
4a
8b-
=4
4.cc
4r}
{8cc
=5
4cc
8f
4dd
8b-
=6
8.ee-
16ff
16dd
16ee-
8cc
8r}
{8gg
=7
4ff
8dd
4cc
8dd
=8
4.b-
4r}
==
!!!AGN: Jugend - Lied, Jahreszeiten, Fruehling
!!!ONB: ESAC (Essen Associative Code) Database: FINK
!!!AMT: compound duple
!!!AIN: vox
!!!EED: Helmut Schaffrath
!!!EEV: 1.0
*-
